X:1
T: Miss Graham
C:
R:Reel
Q: 232
K:D
M:4/4
L:1/8
|:A2|d2 df ed cB|A2 AB AG FE|DF AF DG BG|DF AF GF ED|
d2 df ed cB|A2 AB AG FE|DA dA fe dc|d2 d2 d2:|
|:cd|ec ec Ac ec|fd fd Ad fd|ge ge fd fd|ed cB A2 A2|
BG BG DG Bd|AF AF DF Ad|FA dA fe dc|d2 d2 d2:|
